X:85
T:Sailor's Wife
M:6/8
L:1/8
Q:120
R:Jig (Key of Em)
K:Em
"Em"EFG F2E | e2f g2a | bag fed | "G"(3Bcd"D" B "D"AFD |
"Em"EFG F2E | e2f g2a | bge "B7"af^d |1 "Em"e3 e2B :|2 "Em" e3 e2f |:
"G"gab gab | gab bag | "D"fda fda | fga agf |
"G"gab bag | "D"fga agf | "Em"bge "B7"af^d |1 "Em"e3 e3 :|2 "Em" e3 e2B |]
